!!!COM: Music21
!!!OTL: A feira de Paiosaco
!!!OMV: pezas_foliadas_a-feira-de-paiosaco_a-feira-de-paiosaco-partitura.musicxml
**kern
*part1
*staff1
*I"Bagpipes
*I'Bag
*clefG^2
*k[]
*M3/4
=1
!LO:TX:a:t=Presto
*MM184
!LO:TX:a:t=[quarter]=184
4r
8ccL
8ddJ
8eeL
8ffJ
=||
4.gg
8ff
4ee
=
4cc
4dd
4ee
=
8ffL
8ggJ
8ffL
8eeJ
[4dd
=
4dd]
8ddL
8eeJ
8ffL
8ggJ
=
4.aa
8gg
4ff
=
4dd
4ff
4aa
=
8ggL
8aaJ
8ggL
8ffJ
[4ee
!!linebreak:original
=
4ee]
8ccL
8ddJ
8eeL
8ffJ
!!linebreak:original
=
4.gg
8ff
4ee
=
8ccL
8ddJ
8eeL
8ccJ
8ddL
8eeJ
=
8ffL
8eeJ
8ffL
8ggJ
4aa
=
4r
4bb
4aa
=
4.gg
8ff
4ee
=
8ddL
8eeJ
8ffL
8eeJ
8ddL
8eeJ
=
[2.cc
=
4cc]
8ccL
8ddJ
8eeL
8ffJ
=||
4.gg
8ff
4ee
!!linebreak:original
=
4cc
4dd
4ee
=
8ffL
8ggJ
8ffL
8eeJ
[4dd
=
4dd]
8ddL
8eeJ
8ffL
8ggJ
=
4.aa
8gg
4ff
=
4dd
4ff
4aa
=
8ggL
8aaJ
8ggL
8ffJ
[4ee
=
4ee]
8ccL
8ddJ
8eeL
8ffJ
!!linebreak:original
=
4.gg
8ff
4ee
=
8ccL
8ddJ
8eeL
8ccJ
8ddL
8eeJ
=
8ffL
8eeJ
8ffL
8ggJ
4aa
=
4r
4bb
4aa
=
4.gg
8ff
4ee
=
8ddL
8eeJ
8ffL
8eeJ
8ddL
8eeJ
=
[2.cc
=
4cc]
2r
=||
4ee
4ee
4gg
!!linebreak:original
=
4gg
4gg
4gg
=
2aa
[4gg
=
4gg]
4aa
4bb
=
2ccc
4ddd
=
2ccc
4ddd
=
2ccc
4bb
=
[2.gg
=
2gg]
4r
=||
4ee
4ee
4gg
!!pagebreak:original
=
4gg
4gg
4gg
=
2aa
[4gg
=
4gg]
4aa
4bb
=
2ccc
4ddd
=
2ccc
4ddd
=
2ccc
4bb
=
[2.gg
=
2gg]
4r
=||
4aa
4gg
4ff
=
4gg
4aa
4bb
=
4ccc
4r
[4gg
=
4gg]
4dd
4ee
=
2ff
4gg
!!linebreak:original
=
2aa
4bb
=
4aa
[2gg
!!linebreak:original
=
2gg]
4r
=
4aa
4gg
4ff
=
4gg
4aa
4bb
=
4ccc
4r
[4gg
=
4gg]
4ff
4ee
=
2dd
4ee
=
2ff
4ee
=
4dd
[2cc
=
4cc]
4r
4cc
=
2ee
4cc
=
4ff
4ee
4cc
=
4.dd
8cc
[4b
!!linebreak:original
=
4b]
4r
4dd
=
2ff
4dd
!!linebreak:original
=
4gg
4ff
4dd
=
2ee
4dd
=
2cc
4cc
=
2ee
4cc
=
4ff
4ee
4ff
=
4.dd
8cc
4b
=
4cc
4dd
4ee
=
4.ff
8ee
4dd
=
4cc
4b
4dd
=
4cc
4b
4dd
=||
[2.cc
=
4cc]
4r
4cc
!!linebreak:original
=
2ee
4cc
=
4ff
4ee
4cc
!!linebreak:original
=
4.dd
8cc
[4b
=
4b]
4r
4dd
=
2ff
4dd
=
4gg
4ff
4dd
=
2ee
4dd
=
2cc
4cc
=
2ee
4cc
=
4ff
4ee
4ff
=
4.dd
8cc
4b
=
4cc
4dd
4ee
=
4.ff
8ee
4dd
!!pagebreak:original
=
4cc
4b
4dd
=
[2.cc
!!pagebreak:original
=
4cc]
8ccL
8ddJ
8eeL
8ffJ
=||
[2.cc
=
8cc]
8r
2r
==
*-
!!!system-decoration: s1,s2
